src/assets/images/compete-icon.svg

<svg width="37" height="35" viewBox="0 0 37 35" fill="none" xmlns="http://www.w3.org/2000/svg">
<g clip-path="url(#clip0_463_10959)">
<path d="M27.6152 5.1822C27.9748 4.84227 27.9751 4.29138 27.616 3.95119C27.6158 3.95092 27.6155 3.95065 27.6152 3.95039L23.7086 0.254948C23.3492 -0.0849825 22.766 -0.0849825 22.4067 0.254948L16.5469 5.79824L18.5001 7.64582C18.858 7.98736 18.8555 8.53904 18.4944 8.87764C18.1353 9.2141 17.5569 9.2141 17.1979 8.87764L15.2447 7.02978L0.269516 21.1955C-0.0898387 21.5354 -0.0898387 22.0871 0.269516 22.427L4.17612 26.1225C4.53519 26.4627 5.11784 26.4629 5.4772 26.1233C5.47748 26.123 5.47804 26.1227 5.47804 26.1225C6.55695 25.1019 8.30602 25.1019 9.38465 26.1225C10.4636 27.1431 10.4636 28.7976 9.38465 29.8179C9.02501 30.1576 9.02473 30.7087 9.3838 31.0487C9.38408 31.0489 9.38437 31.0495 9.38465 31.0495L13.2913 34.7449C13.6506 35.0848 14.2338 35.0848 14.5935 34.7449L29.5684 20.5792L27.6149 18.7316C27.2539 18.393 27.2513 17.8413 27.6093 17.4998C27.9672 17.1583 28.5501 17.1559 28.9115 17.4945C28.9134 17.4961 28.9151 17.4979 28.9171 17.4998L30.8706 19.3474L36.7303 13.8046C37.0897 13.4644 37.0897 12.9127 36.7303 12.5728L32.8237 8.87737C32.4646 8.53717 31.882 8.53691 31.5226 8.87657C31.5224 8.87684 31.5218 8.8771 31.5218 8.87737C30.4429 9.89796 28.6938 9.89796 27.6152 8.87737C26.5363 7.85705 26.5363 6.20252 27.6152 5.1822ZM18.5001 23.6589L15.8957 26.1225C15.5377 26.464 14.9548 26.4664 14.5935 26.1278C14.2324 25.7892 14.2299 25.2378 14.5878 24.896C14.5898 24.8941 14.5918 24.8925 14.5935 24.8907L17.1979 22.427C17.5592 22.0884 18.1421 22.0909 18.5001 22.4324C18.8557 22.772 18.8557 23.3195 18.5001 23.6589ZM19.8023 17.5001L13.2913 23.6589C12.9302 23.9975 12.3473 23.995 11.9891 23.6535C11.6334 23.3139 11.6334 22.7667 11.9891 22.427L18.5001 16.2682C18.8611 15.9297 19.4443 15.9321 19.8023 16.2736C20.1579 16.6133 20.1579 17.1604 19.8023 17.5001ZM17.1979 15.0364L10.6869 21.1955C10.3258 21.5341 9.74287 21.5317 9.38493 21.1899C9.02896 20.8505 9.02896 20.3031 9.38493 19.9637L15.8957 13.8046C16.2536 13.4631 16.8368 13.4607 17.1979 13.7993C17.5592 14.1379 17.5617 14.6896 17.2035 15.0311C17.2018 15.033 17.1998 15.0346 17.1979 15.0364ZM26.313 15.0364C26.674 15.375 26.6766 15.9267 26.3186 16.2682C25.9607 16.61 25.3778 16.6124 25.0164 16.2736C25.0147 16.272 25.0128 16.2701 25.0108 16.2682L23.7086 15.0364C23.3506 14.6949 23.3532 14.1432 23.7145 13.8046C24.0733 13.4682 24.652 13.4682 25.0108 13.8046L26.313 15.0364ZM22.4067 11.341C22.7646 11.6828 22.7621 12.2342 22.4007 12.5728C22.042 12.9095 21.4633 12.9095 21.1045 12.5728L19.8023 11.341C19.4409 11.0024 19.4384 10.451 19.7963 10.1092C20.1543 9.76765 20.7375 9.76525 21.0985 10.1038C21.1005 10.1057 21.1025 10.1076 21.1045 10.1092L22.4067 11.341Z" fill="#0000FF"/>
</g>
<defs>
<clipPath id="clip0_463_10959">
<rect width="37" height="35" fill="white"/>
</clipPath>
</defs>
</svg>

<svg xmlns="http://www.w3.org/2000/svg" width="37" height="35" fill="none" viewBox="0 0 37 35"><g clip-path="url(#a)"><path fill="#00f" d="M27.615 5.182a.84.84 0 0 0 0-1.232L23.71.255a.96.96 0 0 0-1.302 0l-5.86 5.543L18.5 7.646a.84.84 0 0 1-.006 1.232.96.96 0 0 1-1.296 0L15.245 7.03.27 21.196a.84.84 0 0 0 0 1.231l3.906 3.695c.36.34.942.34 1.301.001h.001c1.079-1.021 2.828-1.021 3.907 0a2.514 2.514 0 0 1 0 3.695c-.36.34-.36.89-.001 1.23v.002l3.907 3.695a.96.96 0 0 0 1.303 0l14.974-14.166-1.953-1.847a.84.84 0 0 1-.006-1.232.96.96 0 0 1 1.302-.006l.006.006 1.954 1.847 5.86-5.542a.84.84 0 0 0 0-1.232l-3.907-3.696a.957.957 0 0 0-1.301 0h-.001c-1.08 1.021-2.828 1.021-3.907 0a2.514 2.514 0 0 1 0-3.695M18.5 23.66l-2.604 2.464a.96.96 0 0 1-1.303.005.84.84 0 0 1-.005-1.232l.006-.005 2.604-2.464a.96.96 0 0 1 1.302.005.84.84 0 0 1 0 1.227m1.302-6.159-6.51 6.159a.96.96 0 0 1-1.303-.005.84.84 0 0 1 0-1.227l6.511-6.159a.96.96 0 0 1 1.302.006.84.84 0 0 1 0 1.226m-2.604-2.464-6.511 6.16a.96.96 0 0 1-1.302-.006.837.837 0 0 1 0-1.226l6.51-6.16a.96.96 0 0 1 1.303-.005c.361.339.364.89.005 1.232zm9.115 0c.361.339.364.89.006 1.232a.96.96 0 0 1-1.303.006l-.005-.006-1.302-1.232a.84.84 0 0 1 .006-1.231.96.96 0 0 1 1.296 0zm-3.906-3.695a.84.84 0 0 1-.006 1.232.96.96 0 0 1-1.296 0l-1.303-1.232a.84.84 0 0 1-.006-1.232.96.96 0 0 1 1.309 0z"/></g><defs><clipPath id="a"><path fill="#fff" d="M0 0h37v35H0z"/></clipPath></defs></svg>
